src/Assets/icon5.svg

<svg enable-background="new 0 0 60 60" height="512" viewBox="0 0 60 60" width="512" xmlns="http://www.w3.org/2000/svg"><g fill="#880d1e"><path d="m38.914 0h-32.414v60h47v-45.414zm.586 3.414 10.586 10.586h-10.586zm-31 54.586v-56h29v14h14v42z"/><path d="m42.5 21h-16c-.552 0-1 .447-1 1s.448 1 1 1h16c.552 0 1-.447 1-1s-.448-1-1-1z"/><path d="m22.875 18.219-4.301 3.441-1.367-1.367c-.391-.391-1.023-.391-1.414 0s-.391 1.023 0 1.414l2 2c.194.194.45.293.707.293.22 0 .441-.072.624-.219l5-4c.432-.346.501-.975.156-1.406-.344-.432-.974-.501-1.405-.156z"/><path d="m42.5 32h-16c-.552 0-1 .447-1 1s.448 1 1 1h16c.552 0 1-.447 1-1s-.448-1-1-1z"/><path d="m22.875 29.219-4.301 3.441-1.367-1.367c-.391-.391-1.023-.391-1.414 0s-.391 1.023 0 1.414l2 2c.194.194.45.293.707.293.22 0 .441-.072.624-.219l5-4c.432-.346.501-.975.156-1.406-.344-.432-.974-.501-1.405-.156z"/><path d="m42.5 43h-16c-.552 0-1 .447-1 1s.448 1 1 1h16c.552 0 1-.447 1-1s-.448-1-1-1z"/><path d="m22.875 40.219-4.301 3.441-1.367-1.367c-.391-.391-1.023-.391-1.414 0s-.391 1.023 0 1.414l2 2c.194.194.45.293.707.293.22 0 .441-.072.624-.219l5-4c.432-.346.501-.975.156-1.406-.344-.432-.974-.501-1.405-.156z"/></g></svg>

<?xml version="1.0"?>
<svg xmlns="http://www.w3.org/2000/svg" xmlns:xlink="http://www.w3.org/1999/xlink" version="1.1" id="Capa_1" x="0px" y="0px" viewBox="0 0 60 60" style="enable-background:new 0 0 60 60;" xml:space="preserve" width="512px" height="512px" class=""><g><g>
	<path d="M38.914,0H6.5v60h47V14.586L38.914,0z M39.5,3.414L50.086,14H39.5V3.414z M8.5,58V2h29v14h14v42H8.5z" data-original="#000000" class="active-path" data-old_color="#000000" fill="#880D1E"/>
	<path d="M42.5,21h-16c-0.552,0-1,0.447-1,1s0.448,1,1,1h16c0.552,0,1-0.447,1-1S43.052,21,42.5,21z" data-original="#000000" class="active-path" data-old_color="#000000" fill="#880D1E"/>
	<path d="M22.875,18.219l-4.301,3.441l-1.367-1.367c-0.391-0.391-1.023-0.391-1.414,0s-0.391,1.023,0,1.414l2,2   C17.987,23.901,18.243,24,18.5,24c0.22,0,0.441-0.072,0.624-0.219l5-4c0.432-0.346,0.501-0.975,0.156-1.406   C23.936,17.943,23.306,17.874,22.875,18.219z" data-original="#000000" class="active-path" data-old_color="#000000" fill="#880D1E"/>
	<path d="M42.5,32h-16c-0.552,0-1,0.447-1,1s0.448,1,1,1h16c0.552,0,1-0.447,1-1S43.052,32,42.5,32z" data-original="#000000" class="active-path" data-old_color="#000000" fill="#880D1E"/>
	<path d="M22.875,29.219l-4.301,3.441l-1.367-1.367c-0.391-0.391-1.023-0.391-1.414,0s-0.391,1.023,0,1.414l2,2   C17.987,34.901,18.243,35,18.5,35c0.22,0,0.441-0.072,0.624-0.219l5-4c0.432-0.346,0.501-0.975,0.156-1.406   C23.936,28.943,23.306,28.874,22.875,29.219z" data-original="#000000" class="active-path" data-old_color="#000000" fill="#880D1E"/>
	<path d="M42.5,43h-16c-0.552,0-1,0.447-1,1s0.448,1,1,1h16c0.552,0,1-0.447,1-1S43.052,43,42.5,43z" data-original="#000000" class="active-path" data-old_color="#000000" fill="#880D1E"/>
	<path d="M22.875,40.219l-4.301,3.441l-1.367-1.367c-0.391-0.391-1.023-0.391-1.414,0s-0.391,1.023,0,1.414l2,2   C17.987,45.901,18.243,46,18.5,46c0.22,0,0.441-0.072,0.624-0.219l5-4c0.432-0.346,0.501-0.975,0.156-1.406   C23.936,39.943,23.306,39.874,22.875,40.219z" data-original="#000000" class="active-path" data-old_color="#000000" fill="#880D1E"/>
</g></g> </svg>
